!!!OTL@@DE: Auf, ihr meine deutschen Br&uuml;der
!!!CDT: 1791, 1801
!!!OMD: Andante
!!!LYR: Miller, J.M.
!!!LDT: 1774
!!!OCL: Erk, Ludwig
!!!GCO: Deutscher Liederschatz, Band 2
**kern	**kern	**kern
*staff3	*staff2	*staff1
*Ipiano	*Ipiano	*Ivox
*>[A,A,B]	*>[A,A,B]	*>[A,A,B]
*>norep[A,B]	*>norep[A,B]	*>norep[A,B]
*>A	*>A	*>A
=1-	=1-	=1-
*clefF4	*clefG2	*clefG2
*k[b-e-]	*k[b-e-]	*k[b-e-]
*B-:	*B-:	*B-:
*met(C)	*met(C)	*met(C)
*M4/4	*M4/4	*M4/4
4.B-\	4.b-\	4.b-\
8F\	8f/	8f/
4.G\	4.g/	4.g/
8D\	8d/	8d/
=2	=2	=2
8E-\L	8e-/L	8e-/L
8F\	8f/	8f/J
8G\	8g/	8g/L
8A\J	8a/J	8a/J
8B-\L	8b-/L	8b-/L
8F\J	8f/J	8f/J
4F\	4f/	4f/
=3	=3	=3
4BB-\ 4B-\	4f/ 4b-/ 4dd/	8dd\L
.	.	8b-\J
4BB-\ 4B-\	4f/ 4dd/	8ff\L
.	.	8dd\J
4.AA\ 4.A\	4.c/ 4.f/ 4.cc/	4.cc\
8BB-\ 8B-\	8d/ 8g/ 8b-/	8b-\
=4	=4	=4
4C\ 4c\	4f/ 4a/	4a/
4CC/ 4C/	4B-/ 4en/ 4g/	4g/
4FF/ 4F/	4A/ 4c/ 4f/	4f/
4r	4r	4r
=5:|!	=5:|!	=5:|!
*>B	*>B	*>B
4D\	4B-/ 4f/	4f/
4BB-\ 4B-\	4d/ 4f/ 4b-/	4b-\
4E-\ 4B-\	4e-/ 4g/	4.g/
4D\ 4Bn\	4f/ 4g/	.
.	.	8g/
=6	=6	=6
*	*^	*
4C\ 4c\	8g/	4en\	(8g/
.	4cc/	.	4cc\)
4En\ 4c\	.	4g\	.
.	8b-/	.	8b-\
4F\ 4c\	8b-/L	4f\	8b-/L
.	8a/	.	8a/J
4F\ 4A\	8g/	4c\	8g/L
.	8f/J	.	8f/J
*	*v	*v	*
=7	=7	=7
4AA\ 4A\	4.f/ 4.cc/ 4.ee-/	4.ee-\
4FF/ 4F/	.	.
.	8f/ 8a/ 8cc/	8cc\
4BB-\ 4B-\	4.f/ 4.b-/ 4.dd/	4.dd\
4D\	.	.
.	8d/ 8f/ 8b-/	8b-\
=8	=8	=8
*	*^	*
4E-\	8f/ 8b-/L	4c\	8b-/L
*^	*	*	*
.	.	8a/J	.	8a/J
4B-/	8D\L	8b-/L	4f\	8b-\L
.	8BB-\J	8dd/J	.	8dd\J
(4B-/	2F\	(4dd/	2f\	(4dd\
4A/)	.	4cc/)	.	4cc\)
*v	*v	*	*	*
*	*v	*v	*
=9	=9	=9
4D\ 4B-\	4f/ 4b-/	4b-\
4BB-\ 4B-\	4d/ 4f/	4f/
*	*^	*
4E-\ 4B-\	4.g/	4e-\	4.g/
4D\ 4Bn\	.	4f\	.
.	8g/	.	8g/
=10	=10	=10	=10
4C\ 4c\	4.cc/	4en\ 4g\	4.cc\
4En\ 4c\	.	4g\	.
.	8b-/	.	8b-\
4F\ 4c\	8b-/L	4f\	8b-/L
.	8a/	.	8a/J
4F\ 4A\	8g/	4c\	8g/L
.	8f/J	.	8f/J
*	*v	*v	*
=11	=11	=11
4AA\ 4A\	4.f/ 4.cc/ 4.ee-/	4.ee-\
4FF/ 4F/	.	.
.	8f/ 8a/ 8cc/	8cc\
4BB-\ 4B-\	4f/ 4b-/ 4dd/	4dd\
4EE-/ 4E-/	8g/ 8ee-/L	8ee-\L
.	8e-/ 8cc/J	8cc\J
=12	=12	=12
4FF/ 4F/	4d/ 4b-/	4b-\
4FF/ 4F/	4c/ 4e-/ 4f/ 4a/	4a/
2BBB-/ 2BB-/	2d/ 2f/ 2b-/	2b-\
==	==	==
*-	*-	*-
!!!ENC: Craig Stuart Sapp
!!!END: 2004/05/19/
!!!EFL: 212/600
